teeny/solid/bulb-on.svg

<svg width="15" height="15" viewBox="0 0 15 15" fill="none" xmlns="http://www.w3.org/2000/svg">
<path d="M7 0V2H8V0H7Z" fill="black"/>
<path d="M3.35355 3.64645L1.85355 2.14645L1.14645 2.85355L2.64645 4.35355L3.35355 3.64645Z" fill="black"/>
<path d="M12.3536 4.35355L13.8536 2.85355L13.1464 2.14645L11.6464 3.64645L12.3536 4.35355Z" fill="black"/>
<path d="M7.49998 3C5.52977 3 3.85938 4.44872 3.58075 6.39913L3.5707 6.46949C3.41148 7.58398 3.73042 8.64543 4.36009 9.45895C4.74345 9.95426 5 10.427 5 10.9013V12.5C5 12.7761 5.22386 13 5.5 13H9.5C9.77614 13 10 12.7761 10 12.5V10.9013C10 10.427 10.2565 9.95423 10.6399 9.45893C11.2696 8.64541 11.5885 7.58397 11.4293 6.4695L11.4192 6.39914C11.1406 4.44873 9.4702 3 7.49998 3Z" fill="black"/>
<path d="M0 8H2V7H0V8Z" fill="black"/>
<path d="M13 8H15V7H13V8Z" fill="black"/>
<path d="M6 15H9V14H6V15Z" fill="black"/>
</svg>

<svg viewBox="0 0 15 15" xmlns="http://www.w3.org/2000/svg"><g><path d="M7 0v2h1V0H7Z"/><path d="M3.35 3.64l-1.5-1.5 -.71.7 1.5 1.5 .7-.71Z"/><path d="M12.35 4.35l1.5-1.5 -.71-.71 -1.5 1.5 .7.7Z"/><path d="M7.49 3C5.51 3 3.84 4.44 3.57 6.39l-.02.07c-.16 1.11.15 2.17.78 2.98 .38.49.63.96.63 1.44v1.59c0 .27.22.5.5.5h4c.27 0 .5-.23.5-.5v-1.6c0-.48.25-.95.63-1.45 .62-.82.94-1.88.78-2.99l-.02-.08c-.28-1.96-1.95-3.4-3.92-3.4Z"/><path d="M0 8h2V7H0v1Z"/><path d="M13 8h2V7h-2v1Z"/><path d="M6 15h3v-1H6v1Z"/></g></svg>
